crates/veac-codegen/tests/fixtures/identity-1d.cube
# VEAC unit-test identity LUT
TITLE "identity 1d"
LUT_1D_SIZE 2
DOMAIN_MIN 0 0 0
DOMAIN_MAX 1 1 1
0 0 0
1 1 1
