examples/advanced-color/assets/cinematic.cube
TITLE "VEAC 固定电影调色"
LUT_3D_SIZE 2
DOMAIN_MIN 0.0 0.0 0.0
DOMAIN_MAX 1.0 1.0 1.0
0.00 0.00 0.03
0.00 0.02 0.92
0.00 0.94 0.03
0.00 0.96 0.92
1.00 0.02 0.03
1.00 0.04 0.92
1.00 0.96 0.03
1.00 0.98 0.92
