examples/advanced-color/assets/tone-curve.cube
TITLE "VEAC 固定一维曲线"
LUT_1D_SIZE 4
DOMAIN_MIN 0.0 0.0 0.0
DOMAIN_MAX 1.0 1.0 1.0
0.00 0.00 0.00
0.28 0.30 0.34
0.72 0.70 0.66
1.00 1.00 1.00
